X:2414
T:Untitled Carval 
C:Manx National Music carval XXIV 
C:Traditional
O:Isle of Man
N:See KV 270
Z:Kiaull Vannin 414 
L:1/4
M:4/4 
Q:70 
K:D 
d|d F/G/ A B/=c/|B B A A|d e f e/d/|e3 A| 
d e f e/d/|B d A d|d F/G/ A B/c/|d3|| 

